x-pack/solutions/search/plugins/enterprise_search/public/assets/client_libraries/javascript.svg

<svg width="24" height="24" viewBox="0 0 24 24" fill="none" xmlns="http://www.w3.org/2000/svg">
<path d="M1.875 1.875H22.125V22.1252H1.875V1.875Z" fill="#F0DB4F"/>
<path d="M20.4677 17.2954C20.3194 16.3716 19.717 15.5956 17.9326 14.8721C17.3127 14.5872 16.6217 14.3832 16.4158 13.9135C16.3426 13.6401 16.3329 13.4861 16.3792 13.3206C16.512 12.7836 17.1531 12.6162 17.6612 12.7702C17.9884 12.8798 18.2982 13.132 18.485 13.5343C19.3588 12.9685 19.3571 12.9722 19.9672 12.5833C19.7438 12.237 19.6246 12.0772 19.4784 11.929C18.9528 11.342 18.2367 11.0396 17.0914 11.0628L16.4949 11.1399C15.9232 11.2844 15.3784 11.5844 15.0589 11.9867C14.1003 13.0744 14.3737 14.978 15.5401 15.7615C16.6893 16.624 18.3774 16.8202 18.5931 17.6267C18.8029 18.6141 17.8674 18.9338 16.9376 18.8202C16.2524 18.6777 15.8713 18.3294 15.4593 17.6961C14.7009 18.135 14.7009 18.135 13.9212 18.5834C14.1061 18.9876 14.3004 19.1706 14.6103 19.5208C16.0772 21.0087 19.7479 20.9356 20.4063 18.6835C20.4329 18.6062 20.6102 18.0905 20.4677 17.2954V17.2954ZM12.8835 11.182H10.9894L10.9817 16.0788C10.9817 17.1203 11.0356 18.075 10.8662 18.3676C10.5891 18.9431 9.87103 18.8718 9.54378 18.7602C9.21072 18.5965 9.04135 18.3637 8.84513 18.0347C8.79127 17.9402 8.75083 17.8671 8.73724 17.8614L7.19727 18.8045C7.45333 19.3301 7.83056 19.7863 8.31375 20.0826C9.03553 20.5158 10.0056 20.6486 11.0202 20.4157C11.6805 20.2233 12.2502 19.8249 12.5485 19.2185C12.9798 18.4234 12.8872 17.4611 12.8834 16.3967C12.8931 14.6602 12.8835 12.924 12.8835 11.182V11.182Z" fill="#323330"/>
</svg>

<svg xmlns="http://www.w3.org/2000/svg" width="24" height="24" fill="none"><path fill="#F0DB4F" d="M1.875 1.875h20.25v20.25H1.875z"/><path fill="#323330" d="M20.468 17.295c-.149-.923-.751-1.7-2.535-2.423-.62-.285-1.311-.489-1.517-.958-.073-.274-.083-.428-.037-.593.133-.537.774-.705 1.282-.55.327.109.637.361.824.763.874-.566.872-.562 1.482-.95-.223-.347-.342-.507-.489-.655-.525-.587-1.241-.89-2.387-.866l-.596.077c-.572.144-1.117.444-1.436.847-.959 1.087-.685 2.991.481 3.774 1.15.863 2.837 1.06 3.053 1.866.21.987-.726 1.307-1.655 1.193-.686-.142-1.067-.49-1.479-1.124-.758.439-.758.439-1.538.887.185.405.38.588.69.938 1.466 1.488 5.137 1.415 5.795-.838.027-.077.204-.593.062-1.388m-7.584-6.113h-1.895l-.007 4.897c0 1.041.054 1.996-.116 2.289-.277.575-.995.504-1.322.392-.333-.164-.503-.396-.699-.725-.054-.095-.094-.168-.108-.174l-1.54.944c.256.525.634.981 1.117 1.278.722.433 1.692.566 2.706.333.66-.193 1.23-.591 1.529-1.198.43-.795.338-1.757.334-2.821.01-1.737 0-3.473 0-5.215"/></svg>
